X:150
M:4/4
L:1/8
K:G
| DG B/c/d gedB | gage dBge | d/e/d BG B/c/d AB | agef gedB | 
| a2ag egdg | g/a/g bg egdg | edef gedB | c/B/A B/A/G AGEG | 
a2ag egdg | g/a/g bg egdg | edef gedB | c/B/A B/A/G A2A2 :|| 

